X:43
C:Page 22
T:White Cockade. MBe.43, The
S:Matthew Betham MS, Towcett Cumbria, 1815
O:England;Cumbria;Towcett
Z:VMP – Hugh Taylor, 2012
M:2/4
L:1/8
Q:1/4=100
R:.Reel
N:Well known in the district as a tune to play for Westmorland Style step dancing
N:Not the same as the White Cockade MBe.27 on page 13
K:G
g|dB BA/G/|BBBg|dB BA/G/|BA AG/A/|
BB BA/B/|{A}G”sic”G>ga|(b/a/g/f/) (a/g/f/e/)|dB BB:|
|:c|{e}dBgB|ddde|{e}dc/B/ {a}~gf/g/|gA AG/A/|
BB BA/B/|GGga|(b/a/g/f/) (a/g/f/e/)|dB BB:|

